X:1
T:Title
%%score { 1 | 2 }
L:1/8
Q:1/4=100
M:4/4
K:C
V:1 treble nm="Grand Piano"
V:2 bass 
V:1
 [CEG]>[G,DF] [G,CE][G,DF] [CEG]2 [CGc]2 | [CFA]>[CAc] [CGB][CFA] [CEG]4 | G>A Bc d2 [DGB]2 | %3
w: J.~H.~Hall * * * * *|||
 [CGc]>[DGB] [EGc][Ge] [Gd]2 z2 | [CEG]>[G,DF] [G,CE][G,DF] [EG]2 [Ge]2 | d>c Bc A4 | GABc d2 f2 | %7
w: ||||
 e>d cB [Ec]4 | CDEF G2 [Ge]>[Ge] | [Ge]2 e>e e2 (3gfe | dcBA G2 d>d | d2 d>d d2 (3cBA | %12
w: |||||
 [EG]>[DF] [CE][DF] [EG]2 [Ge]2 | d>c Bc A4 | GABc d2 f2 | e>d cB [Ec]4 |] %16
w: ||||
V:2
 C,>C, C,C, C,2 E,2 | F,>F, F,F, C,4 | [G,B,F]>[G,CF] [G,DF][G,CE] [G,B,G]2[K:bass] G,F, | %3
 E,>D, C,[C,C] [G,B,]2[K:treble] (3cBA | C,>C, C,C, [C,C]2 [C,C]2 | %5
 [F,A,F]>[F,A,F] [F,A,F][F,A,F] [F,CF]4 | [G,B,F][G,CF][G,DF][G,CE] [G,B,G]2 [G,DG]2 | %7
 [G,CG]>[G,B,F][K:bass] [G,CE][G,D] [C,G,]4 | C,D,E,F, G,2 [C,C]>[C,C] | %9
 [C,C]2[K:treble] [CG]>[CG] [CG]2 z2 | DCB,A, G,2[K:treble] [G,B,G]>[G,B,G] | %11
 [G,B,G]2 [G,B,G]>[G,B,G] [G,B,G]2 z2 | [C,C]>[C,G,] [C,G,][C,G,] [C,C]2 [C,C]2 | %13
 [F,A,F]>[F,A,F] [F,A,F][F,A,F] [F,CF]4 | [G,B,F][G,CF][G,DF][G,CE] [G,B,G]2 [G,DG]2 | %15
 [G,CG]>[G,B,F][K:bass] [G,CE][G,D] [C,G,]4 |] %16

